modules/hawcons-filled/icons/icon-20-bookmark-remove.svg

<?xml version="1.0" encoding="UTF-8" standalone="no"?>
<svg width="32px" height="32px" viewBox="0 0 32 32" version="1.1" xmlns="http://www.w3.org/2000/svg" xmlns:xlink="http://www.w3.org/1999/xlink" xmlns:sketch="http://www.bohemiancoding.com/sketch/ns">
    <!-- Generator: Sketch 3.0.3 (7891) - http://www.bohemiancoding.com/sketch -->
    <title>icon 20 bookmark remove</title>
    <desc>Created with Sketch.</desc>
    <defs></defs>
    <g id="Page-1" stroke="none" stroke-width="1" fill="none" fill-rule="evenodd" sketch:type="MSPage">
        <g id="icon-20-bookmark-remove" sketch:type="MSArtboardGroup" fill="#929292">
            <path d="M20,19.9810552 L20,28 L14,22 L8,28 L8,6.99109042 C8,5.34177063 9.34187067,4 10.997152,4 L17.002848,4 C18.6583772,4 20,5.33915679 20,6.99109042 L20,7.01894481 C19.8349792,7.00639146 19.668236,7 19.5,7 C15.9101489,7 13,9.91014895 13,13.5 C13,17.0898511 15.9101489,20 19.5,20 C19.668236,20 19.8349792,19.9936085 20,19.9810552 L20,19.9810552 L20,19.9810552 Z M19.5,19 C22.5375663,19 25,16.5375663 25,13.5 C25,10.4624337 22.5375663,8 19.5,8 C16.4624337,8 14,10.4624337 14,13.5 C14,16.5375663 16.4624337,19 19.5,19 L19.5,19 Z M16,13 L16,14 L23,14 L23,13 L16,13 L16,13 Z" id="bookmark-remove" sketch:type="MSShapeGroup"></path>
        </g>
    </g>
</svg>

<svg width="32" height="32" xmlns="http://www.w3.org/2000/svg"><path d="M20 19.981V28l-6-6-6 6V6.991A2.996 2.996 0 0 1 10.997 4h6.006A2.994 2.994 0 0 1 20 6.991v.028a6.5 6.5 0 1 0 0 12.962zM19.5 19a5.5 5.5 0 1 0 0-11 5.5 5.5 0 0 0 0 11zM16 13v1h7v-1h-7z" fill="#929292" fill-rule="evenodd"/></svg>
